!! 00000] TT[WS
!!!OTL: Guan huadeng
!!!ARE: Asia, China, Shanxi Qinyuan
!! Ethnic Group: Han
!! WII, 267 (1)
!!!SCT: J0799
!!!YEM: Copyright 1995, estate of Helmut Schaffrath.
**kern
*ICvox
*Ivox
*M4/4
*k[b-]
*F:
{4cc
4cc
4cc
8cc
8ff
=1
8dd
8cc
8b-
8a
2g}
=2
{4cc
4cc
4cc
8cc
8ff
=3
8dd
8cc
8b-
8a
2g}
=4
{4g
4cc
8a
8cc
8a
8g
=5
4cc
8d
8f
8g
8a
8g
8f}
=6
{4c
4f
4f
8f
8a
=7
8g
8f
8e
8d
2c}
=8
{4.g
8f
2g
=9
8a
8g
8f
8a
2g}
=10
{4c
4f
4f
8f
8a
=11
8g
8f
8e
8d
2c}
==
!!!AGN: Xiaodiao. Xuanchuan, Xinminge
!!!ONB: ESAC (Essen Associative Code) Database: CHINA
!!!AMT: simple quadruple
!!!AIN: vox
!!!EED: Helmut Schaffrath
!!!EEV: 1.0
*-
